art/dog.svg

<?xml version="1.0" encoding="UTF-8" standalone="no"?>
<!-- Created with Inkscape (http://www.inkscape.org/) -->

<svg
   sodipodi:docname="dog.svg"
   inkscape:version="1.2.1 (2ed6d7ae0b, 2022-08-22, custom)"
   id="svg10609"
   version="1.1"
   viewBox="0 0 100 100"
   height="100mm"
   width="100mm"
   xml:space="preserve"
   xmlns:inkscape="http://www.inkscape.org/namespaces/inkscape"
   xmlns:sodipodi="http://sodipodi.sourceforge.net/DTD/sodipodi-0.dtd"
   xmlns="http://www.w3.org/2000/svg"
   xmlns:svg="http://www.w3.org/2000/svg"><sodipodi:namedview
     id="namedview10611"
     pagecolor="#ffffff"
     bordercolor="#000000"
     borderopacity="0.25"
     inkscape:showpageshadow="2"
     inkscape:pageopacity="0.0"
     inkscape:pagecheckerboard="0"
     inkscape:deskcolor="#d1d1d1"
     inkscape:document-units="mm"
     showgrid="false"
     inkscape:zoom="3.5126358"
     inkscape:cx="212.37613"
     inkscape:cy="299.06317"
     inkscape:window-width="1846"
     inkscape:window-height="1016"
     inkscape:window-x="74"
     inkscape:window-y="27"
     inkscape:window-maximized="1"
     inkscape:current-layer="layer1" /><defs
     id="defs10606" /><g
     inkscape:label="Layer 1"
     inkscape:groupmode="layer"
     id="layer1"><path
       style="fill:#784421;fill-opacity:1;stroke-width:0.659236"
       d="m 28.484984,64.562197 -5.3562,8.9335 4.1462,11.3689 -3.3407,7.3551 1.5313,7.6229 4.1875,0.195503 0.4639,-2.838303 -2.9636,-0.5082 -0.3191,-3.5775 8.6818,-5.8347 2.2757,-10.5721"
       id="backLeftLeg"
       sodipodi:nodetypes="ccccscccccc"
       inkscape:transform-center-x="1.8422421"
       inkscape:transform-center-y="8.324118"><desc
         id="desc27616">{
    &quot;connectTo&quot;: &quot;body&quot;
}</desc></path><path
       style="fill:#784421;fill-opacity:1;stroke-width:0.659236"
       d="m 60.686084,80.380697 -0.0439,9.2267 4.336,9.7652 3.5753,0.3939 0.5574,-3.3846 -2.8307,-0.24 -0.806,-6.0195 2.0431,-14.6138"
       id="frontLeftLeg"
       sodipodi:nodetypes="cccccccc"
       inkscape:transform-center-x="-1.075329"
       inkscape:transform-center-y="10.267655"><desc
         id="desc27614">{
    &quot;connectTo&quot;: &quot;body&quot;
}</desc></path><path
       d="m 72.227039,49.418193 -2.3381,-4.6334 -2.402899,8.0224"
       style="fill:#784421;fill-opacity:1;stroke-width:0.659236"
       id="leftEar"><desc
         id="desc28008">{
    &quot;connectTo&quot;: &quot;head&quot;
}</desc></path><path
       d="m 57.093914,77.546955 -0.613037,12.322203 4.3359,9.765197 3.5753,0.393905 0.5574,-3.384602 -2.8306,-0.2399 -0.806,-6.0196 2.867993,-12.602488"
       style="fill:#a05a2c;fill-opacity:1;stroke-width:0.659236"
       id="frontRightLeg"
       sodipodi:nodetypes="cccccccc"
       inkscape:transform-center-x="0.14010316"
       inkscape:transform-center-y="9.4113066"><desc
         id="desc28000">{
    &quot;connectTo&quot;: &quot;body&quot;
}</desc></path><path
       style="fill:#a05a2c;fill-opacity:1;stroke-width:0.659236"
       d="m 19.451968,73.658716 5.028416,6.261781 8.8261,-1.1687 7.0891,-1.3788 7.6406,4.9837 15.545014,-1.318872 4.674886,-5.746528 1.2439,-11.324643 -11.6075,-1.828661 -33.024489,-0.384228"
       id="body"
       sodipodi:nodetypes="cccccccccc"
       inkscape:transform-center-x="0.627151"
       inkscape:transform-center-y="-27.525177" /><path
       d="m 27.279301,71.995037 -7.80978,1.670585 4.118763,11.339875 -3.3407,7.3551 1.5313,7.6229 4.1875,0.195503 0.4639,-2.838303 -2.9636,-0.5082 -0.3191,-3.5775 8.6818,-5.8347 1.6184,-8.6759"
       style="fill:#a05a2c;fill-opacity:1;stroke-width:0.659236"
       id="backRightLeg"
       sodipodi:nodetypes="ccccccccccc"
       inkscape:transform-center-x="0.59218499"
       inkscape:transform-center-y="10.867765"><desc
         id="desc28002">{
    &quot;connectTo&quot;: &quot;body&quot;
}</desc></path><path
       d="m 58.85835,67.013367 5.082837,2.322547 5.553351,-5.377434 2.608809,-2.689909 8.397437,0.486537 -0.08436,-2.096053 1.787448,-2.753747 -7.596195,-3.3158 -0.1691,-2.8846 -2.170944,-1.355514 -4.093156,-0.01099 -2.3381,-4.6334 -2.402899,8.0224 -5.5389,9.4117"
       style="fill:#a05a2c;fill-opacity:1;stroke-width:0.659236"
       id="head"
       sodipodi:nodetypes="cccccccccccccc"
       inkscape:transform-center-x="-9.294724"
       inkscape:transform-center-y="-7.3888506"><desc
         id="desc28459">{
    &quot;connectTo&quot;: &quot;body&quot;
}</desc></path><rect
       style="fill:#1a1a1a;fill-opacity:1;stroke-width:0.264583"
       id="rightEye"
       width="1.354082"
       height="1.2356535"
       x="70.527161"
       y="54.055019"><desc
         id="desc28004">{
    &quot;connectTo&quot;: &quot;head&quot;
}</desc></rect><rect
       style="fill:#1a1a1a;fill-opacity:1;stroke-width:0.264583"
       id="leftEye"
       width="1.5247614"
       height="1.2004414"
       x="73.388222"
       y="52.731319"><desc
         id="desc28006">{
    &quot;connectTo&quot;: &quot;head&quot;
}</desc></rect><path
       style="fill:#000000;stroke-width:0.264583"
       d="m 81.274036,58.652128 -1.145291,-2.622013 1.968409,-0.07992 0.551443,1.249793 z"
       id="nose"
       sodipodi:nodetypes="ccccc"><desc
         id="desc28558">{
    &quot;connectTo&quot;: &quot;head&quot;
}</desc></path><path
       style="fill:#000000;stroke-width:0.264583"
       d="m 80.952093,58.80437 -6.355737,-0.275949 5.878005,2.022903 z"
       id="path29021"
       sodipodi:nodetypes="cccc"><desc
         id="desc29049">{
    &quot;connectTo&quot;: &quot;head&quot;
}</desc></path><path
       style="fill:#ff8080;stroke-width:0.264583"
       d="m 75.788198,58.900497 3.182567,0.505429 -0.925654,3.750292 -1.642672,-0.520967 0.890605,-2.451789 z"
       id="tongue"
       sodipodi:nodetypes="cccccc"><desc
         id="desc28639">{
    &quot;connectTo&quot;: &quot;head&quot;
}</desc></path><path
       d="m 20.612973,43.942947 -4.1901,10.4463 7.336,10.3143 4.7098,-2.774104 -8.787,-7.8462 0.9314,-10.1403"
       style="fill:#a05a2c;fill-opacity:1;stroke-width:0.659236"
       id="tail"
       inkscape:transform-center-x="4.6092446"
       inkscape:transform-center-y="-10.104738"><desc
         id="desc29447">{
    &quot;connectTo&quot;: &quot;body&quot;
}</desc></path></g></svg>

<?xml version="1.0" encoding="UTF-8" standalone="no"?>
<!-- Created with Inkscape (http://www.inkscape.org/) -->

<svg
   sodipodi:docname="dog.svg"
   inkscape:version="1.2.1 (2ed6d7ae0b, 2022-08-22, custom)"
   id="svg10609"
   version="1.1"
   viewBox="0 0 100 100"
   height="100mm"
   width="100mm"
   xml:space="preserve"
   xmlns:inkscape="http://www.inkscape.org/namespaces/inkscape"
   xmlns:sodipodi="http://sodipodi.sourceforge.net/DTD/sodipodi-0.dtd"
   xmlns="http://www.w3.org/2000/svg"
   xmlns:svg="http://www.w3.org/2000/svg"><sodipodi:namedview
     id="namedview10611"
     pagecolor="#ffffff"
     bordercolor="#000000"
     borderopacity="0.25"
     inkscape:showpageshadow="2"
     inkscape:pageopacity="0.0"
     inkscape:pagecheckerboard="0"
     inkscape:deskcolor="#d1d1d1"
     inkscape:document-units="mm"
     showgrid="false"
     inkscape:zoom="1.3195747"
     inkscape:cx="-20.461138"
     inkscape:cy="236.06091"
     inkscape:window-width="1846"
     inkscape:window-height="1016"
     inkscape:window-x="74"
     inkscape:window-y="27"
     inkscape:window-maximized="1"
     inkscape:current-layer="layer1" /><defs
     id="defs10606" /><g
     inkscape:label="Layer 1"
     inkscape:groupmode="layer"
     id="layer1"><path
       style="fill:#784421;fill-opacity:1;stroke-width:0.659236"
       d="m 28.485,64.5622 -5.3562,8.9335 4.1462,11.3689 -3.3407,7.3551 1.5313,7.6229 4.1875,0.1954 0.4639,-2.8382 -2.9636,-0.5082 -0.3191,-3.5775 8.6818,-5.8347 2.2757,-10.5721"
       id="backLeftLeg"
       sodipodi:nodetypes="ccccscccccc"
       inkscape:transform-center-x="1.3409328"
       inkscape:transform-center-y="9.6100952"><desc
         id="desc27616">{
    &quot;connectTo&quot;: &quot;body&quot;
}</desc></path><path
       style="fill:#784421;fill-opacity:1;stroke-width:0.659236"
       d="M 60.6861 80.3807 L 60.6422 89.6074 L 64.9782 99.3726 L 68.5535 99.7665 L 69.1109 96.3819 L 66.2802 96.1419 L 65.4742 90.1224 L 67.5173 75.5086"
       id="frontLeftLeg"
       sodipodi:nodetypes="cccccccc"
       inkscape:transform-center-x="-0.59054355"
       inkscape:transform-center-y="13.920481"><desc
         id="desc27614">{
    &quot;connectTo&quot;: &quot;body&quot;
}</desc></path><path
       d="M 72.227 49.4182 L 69.8889 44.7848 L 67.486 52.8072"
       style="fill:#784421;fill-opacity:1;stroke-width:0.659236"
       id="leftEar"><desc
         id="desc28008">{
    &quot;connectTo&quot;: &quot;head&quot;
}</desc></path><path
       style="fill:#a05a2c;fill-opacity:1;stroke-width:0.659236"
       d="M 19.452 73.6587 L 24.4804 79.9205 L 33.3065 78.7518 L 40.3956 77.373 L 48.0362 82.3567 L 63.5812 81.0378 L 68.2561 75.2913 L 69.5 63.9667 L 57.8925 62.138 L 24.868 61.7538"
       id="body"
       sodipodi:nodetypes="cccccccccc"
       inkscape:transform-center-x="0.627151"
       inkscape:transform-center-y="-27.525177" /><path
       d="M 61.9741 72.0552 L 58.6984 72.0552 L 57.028 78.8724 L 56.4809 89.8692 L 60.8168 99.6344 L 64.3921 100.028 L 64.9495 96.6437 L 62.1189 96.4038 L 61.3129 90.3842 L 64.1809 77.7817"
       style="fill:#a05a2c;fill-opacity:1;stroke-width:0.659236"
       id="frontRightLeg"
       sodipodi:nodetypes="cccccccccc"
       inkscape:transform-center-x="0.37400172"
       inkscape:transform-center-y="10.57961"><desc
         id="desc28000">{
    &quot;connectTo&quot;: &quot;body&quot;
}</desc></path><path
       d="M 26.042069,68.636716 19.4695,73.6656 l 4.1188,11.3399 -3.3407,7.3551 1.5313,7.6229 4.1875,0.1955 0.4639,-2.8383 -2.9636,-0.5082 -0.3191,-3.5775 8.6818,-5.8347 1.6184,-8.6759 -1.048651,-6.68915 z"
       style="fill:#a05a2c;fill-opacity:1;stroke:none;stroke-width:0.659236;stroke-opacity:1"
       id="backRightLeg"
       sodipodi:nodetypes="ccccccccccccc"
       inkscape:transform-center-x="0.59218499"
       inkscape:transform-center-y="10.867765"><desc
         id="desc28002">{
    &quot;connectTo&quot;: &quot;body&quot;
}</desc></path><path
       d="M 58.8584 67.0134 L 63.9412 69.3359 L 69.4945 63.9585 L 72.1033 61.2686 L 80.5008 61.7551 L 80.4164 59.6591 L 82.2039 56.9053 L 74.6077 53.5895 L 74.4386 50.7049 L 72.2676 49.3494 L 68.1745 49.3384 L 65.8364 44.705 L 63.4335 52.7274 L 57.8946 62.1391"
       style="fill:#a05a2c;fill-opacity:1;stroke-width:0.659236"
       id="head"
       sodipodi:nodetypes="cccccccccccccc"
       inkscape:transform-center-x="-9.294724"
       inkscape:transform-center-y="-7.3888506"><desc
         id="desc28459">{
    &quot;connectTo&quot;: &quot;body&quot;
}</desc></path><rect
       style="fill:#1a1a1a;fill-opacity:1;stroke-width:0.264583"
       id="rightEye"
       width="1.354082"
       height="1.2356535"
       x="70.527161"
       y="54.055019"><desc
         id="desc28004">{
    &quot;connectTo&quot;: &quot;head&quot;
}</desc></rect><rect
       style="fill:#1a1a1a;fill-opacity:1;stroke-width:0.264583"
       id="leftEye"
       width="1.5247614"
       height="1.2004414"
       x="73.388222"
       y="52.731319"><desc
         id="desc28006">{
    &quot;connectTo&quot;: &quot;head&quot;
}</desc></rect><path
       style="fill:#000000;stroke-width:0.264583"
       d="M 81.274 58.6521 L 80.1287 56.0301 L 82.0972 55.9502 L 82.6486 57.2 L 81.274 58.6521"
       id="nose"
       sodipodi:nodetypes="ccccc"><desc
         id="desc28558">{
    &quot;connectTo&quot;: &quot;head&quot;
}</desc></path><path
       style="fill:#000000;stroke-width:0.264583"
       d="M 80.9521 58.8044 L 74.5964 58.5284 L 80.4744 60.5513 L 80.9521 58.8044"
       id="path29021"
       sodipodi:nodetypes="cccc"
       inkscape:label="mouth"><desc
         id="desc29049">{
    &quot;connectTo&quot;: &quot;head&quot;
}</desc></path><path
       style="fill:#ff8080;stroke-width:0.264583"
       d="M 75.7882 58.9005 L 78.9708 59.4059 L 78.0451 63.1562 L 76.4024 62.6353 L 77.293 60.1835 L 75.7882 58.9005"
       id="tongue"
       sodipodi:nodetypes="cccccc"><desc
         id="desc28639">{
    &quot;connectTo&quot;: &quot;head&quot;
}</desc></path><path
       d="M 20.613 43.9429 L 16.4229 54.3892 L 23.7589 64.7035 L 28.4687 61.9294 L 19.6817 54.0832 L 20.6131 43.9429"
       style="fill:#a05a2c;fill-opacity:1;stroke-width:0.659236"
       id="tail"
       inkscape:transform-center-x="4.6092446"
       inkscape:transform-center-y="-10.104738"><desc
         id="desc29447">{
    &quot;connectTo&quot;: &quot;body&quot;
}</desc></path></g></svg>
